icons/evolvere-blue-folders-flat-vivid-dark-fallback/apps/64/gnome-clocks.svg

<?xml version="1.0" encoding="UTF-8" standalone="no"?>
<!-- Created with Inkscape (http://www.inkscape.org/) -->

<svg
   xmlns:dc="http://purl.org/dc/elements/1.1/"
   xmlns:cc="http://creativecommons.org/ns#"
   xmlns:rdf="http://www.w3.org/1999/02/22-rdf-syntax-ns#"
   xmlns:svg="http://www.w3.org/2000/svg"
   xmlns="http://www.w3.org/2000/svg"
   xmlns:sodipodi="http://sodipodi.sourceforge.net/DTD/sodipodi-0.dtd"
   xmlns:inkscape="http://www.inkscape.org/namespaces/inkscape"
   width="64"
   height="64"
   id="svg13094"
   version="1.1"
   inkscape:version="0.91+devel r"
   sodipodi:docname="gnome-clocks.svg">
  <sodipodi:namedview
     id="base"
     pagecolor="#ffffff"
     bordercolor="#666666"
     borderopacity="1.0"
     inkscape:pageopacity="0"
     inkscape:pageshadow="2"
     inkscape:zoom="8.0000004"
     inkscape:cx="49.995355"
     inkscape:cy="27.666129"
     inkscape:document-units="px"
     inkscape:current-layer="svg13094"
     showgrid="true"
     inkscape:snap-bbox="true"
     inkscape:bbox-paths="true"
     inkscape:bbox-nodes="true"
     inkscape:snap-bbox-edge-midpoints="true"
     inkscape:snap-bbox-midpoints="true"
     inkscape:object-paths="true"
     inkscape:snap-intersection-paths="true"
     inkscape:object-nodes="true"
     inkscape:snap-smooth-nodes="true"
     inkscape:snap-midpoints="true"
     inkscape:snap-object-midpoints="true"
     inkscape:snap-center="true"
     showguides="true"
     inkscape:guide-bbox="true"
     inkscape:window-width="1920"
     inkscape:window-height="1023"
     inkscape:window-x="-10"
     inkscape:window-y="35"
     inkscape:window-maximized="1"
     inkscape:snap-global="true"
     fit-margin-top="0"
     fit-margin-left="0"
     fit-margin-right="0"
     fit-margin-bottom="0"
     showborder="true"
     inkscape:showpageshadow="false"
     inkscape:snap-page="true">
    <inkscape:grid
       type="xygrid"
       id="grid3075"
       empspacing="5"
       visible="true"
       enabled="true"
       snapvisiblegridlinesonly="true"
       originx="1.6362304e-08px"
       originy="18px" />
  </sodipodi:namedview>
  <defs
     id="defs13096" />
  <metadata
     id="metadata13099">
    <rdf:RDF>
      <cc:Work
         rdf:about="">
        <dc:format>image/svg+xml</dc:format>
        <dc:type
           rdf:resource="http://purl.org/dc/dcmitype/StillImage" />
        <dc:title></dc:title>
      </cc:Work>
    </rdf:RDF>
  </metadata>
  <path
     id="path6538"
     d="m 0,2 0,32 0,28 2,2 30,0 30,0 2,-2 0,-28 0,-32 -32,0 z"
     style="color:#000000;display:inline;overflow:visible;visibility:visible;fill:#aeb4c3;fill-opacity:1;fill-rule:nonzero;stroke:none;stroke-width:2.28571415;marker:none;enable-background:accumulate"
     inkscape:connector-curvature="0"
     sodipodi:nodetypes="ccccccccccc" />
  <path
     inkscape:connector-curvature="0"
     style="color:#000000;display:inline;overflow:visible;visibility:visible;fill:#e7ecf0;fill-opacity:1;fill-rule:nonzero;stroke:none;marker:none;enable-background:accumulate"
     d="M 2,0 0,1 0,2 19.5625,2 39.125,2 64,2 64,1 62,0 39.125,0 19.5625,0 Z"
     id="path6688"
     sodipodi:nodetypes="ccccccccccc" />
  <g
     id="g3043"
     inkscape:export-filename="folder.png"
     inkscape:export-xdpi="90"
     inkscape:export-ydpi="90"
     transform="translate(-0.62500009,0.082283)" />
  <g
     id="scalable"
     transform="matrix(1.0385892,0,0,1.0385892,1214.7222,1878.8121)"
     inkscape:label="#g3701"
     style="fill:#ffffff" />
  <path
     style="opacity:1;fill:#f2f5f7;fill-opacity:1;fill-rule:nonzero;stroke-width:1;stroke-linecap:butt;stroke-linejoin:miter;stroke-miterlimit:4;stroke-dasharray:none;stroke-dashoffset:0;stroke-opacity:1"
     d="M 0,1 0,4 2,2 Z"
     id="path4298"
     inkscape:connector-curvature="0"
     sodipodi:nodetypes="cccc" />
  <path
     inkscape:connector-curvature="0"
     style="opacity:1;fill:#ccd1db;fill-opacity:1;stroke:none;stroke-width:1;stroke-linecap:butt;stroke-linejoin:miter;stroke-miterlimit:4;stroke-dasharray:none;stroke-dashoffset:0;stroke-opacity:1;marker:none"
     id="path3028"
     d="M 64,4 62,2 64,1 Z"
     sodipodi:nodetypes="cccc" />
  <g
     id="g4183">
    <path
       sodipodi:type="arc"
       style="color:#000000;fill:#26436c;fill-opacity:0.78443645;fill-rule:evenodd;stroke:none;stroke-width:4.65356765;marker:none;visibility:visible;display:inline;overflow:visible;enable-background:accumulate;opacity:1;stroke-linecap:butt;stroke-linejoin:miter;stroke-miterlimit:4;stroke-dasharray:none;stroke-dashoffset:0;stroke-opacity:1"
       id="path3093"
       sodipodi:cx="33"
       sodipodi:cy="35"
       sodipodi:rx="24"
       sodipodi:ry="24"
       d="M 57,35 A 24,24 0 1 1 9,35 24,24 0 1 1 57,35 z"
       transform="matrix(1.0416666,0,0,1.0416666,-2.3749972,-3.4583304)" />
    <path
       style="color:#000000;fill:#448cf2;fill-opacity:1;fill-rule:nonzero;stroke:none;stroke-width:4.84746599;marker:none;visibility:visible;display:inline;overflow:visible;enable-background:accumulate;opacity:1;stroke-linecap:butt;stroke-linejoin:miter;stroke-miterlimit:4;stroke-dasharray:none;stroke-dashoffset:0;stroke-opacity:1"
       d="m 31,15 2,0 0,18 -2,0 z"
       id="path3867"
       inkscape:connector-curvature="0"
       sodipodi:nodetypes="ccccc"
       inkscape:transform-center-y="-9" />
    <g
       id="g4345"
       style="fill:#ffffff;fill-opacity:0.92576027">
      <path
         inkscape:transform-center-y="-20.5"
         sodipodi:nodetypes="cccc"
         inkscape:connector-curvature="0"
         id="path3869"
         d="m 31,11 2,0 -1,3 z"
         style="color:#000000;fill:#ffffff;fill-opacity:0.92576027;fill-rule:nonzero;stroke:none;stroke-width:4;marker:none;visibility:visible;display:inline;overflow:visible;enable-background:accumulate" />
      <path
         inkscape:transform-center-y="-20.5"
         sodipodi:nodetypes="cccc"
         inkscape:connector-curvature="0"
         id="path3871"
         d="m 54,32 0,2 -3,-1 z"
         style="color:#000000;fill:#ffffff;fill-opacity:0.92576027;fill-rule:nonzero;stroke:none;stroke-width:4;marker:none;visibility:visible;display:inline;overflow:visible;enable-background:accumulate" />
      <path
         inkscape:transform-center-y="-20.5"
         sodipodi:nodetypes="cccc"
         inkscape:connector-curvature="0"
         id="path3873"
         d="m 33,55 -2,0 1,-3 z"
         style="color:#000000;fill:#ffffff;fill-opacity:0.92576027;fill-rule:nonzero;stroke:none;stroke-width:4;marker:none;visibility:visible;display:inline;overflow:visible;enable-background:accumulate" />
      <path
         inkscape:transform-center-x="20.5"
         sodipodi:nodetypes="cccc"
         inkscape:connector-curvature="0"
         id="path3875"
         d="m 10,34 0,-2 3,1 z"
         style="color:#000000;fill:#ffffff;fill-opacity:0.92576027;fill-rule:nonzero;stroke:none;stroke-width:4;marker:none;visibility:visible;display:inline;overflow:visible;enable-background:accumulate" />
    </g>
    <g
       id="g4335"
       style="fill:#ffffff;fill-opacity:0.54203933">
      <path
         inkscape:transform-center-y="20.5"
         sodipodi:nodetypes="cccc"
         inkscape:connector-curvature="0"
         id="path3879"
         d="m 21.649519,52.427559 -1.299038,-0.75 L 22.5,49.454483 z"
         style="color:#000000;fill:#ffffff;fill-opacity:0.54203933;fill-rule:nonzero;stroke:none;stroke-width:4;marker:none;visibility:visible;display:inline;overflow:visible;enable-background:accumulate" />
      <path
         inkscape:transform-center-y="20.5"
         sodipodi:nodetypes="cccc"
         inkscape:connector-curvature="0"
         id="path3883"
         d="m 13.322441,44.649519 -0.75,-1.299038 L 15.545517,42.5 z"
         style="color:#000000;fill:#ffffff;fill-opacity:0.54203933;fill-rule:nonzero;stroke:none;stroke-width:4;marker:none;visibility:visible;display:inline;overflow:visible;enable-background:accumulate" />
      <path
         inkscape:transform-center-y="20.5"
         sodipodi:nodetypes="cccc"
         inkscape:connector-curvature="0"
         id="path3889"
         d="m 12.572441,22.649519 0.75,-1.299038 L 15.545517,23.5 z"
         style="color:#000000;fill:#ffffff;fill-opacity:0.54203933;fill-rule:nonzero;stroke:none;stroke-width:4;marker:none;visibility:visible;display:inline;overflow:visible;enable-background:accumulate" />
      <path
         inkscape:transform-center-y="20.5"
         sodipodi:nodetypes="cccc"
         inkscape:connector-curvature="0"
         id="path3893"
         d="m 20.350481,14.322441 1.299038,-0.75 L 22.5,16.545517 z"
         style="color:#000000;fill:#ffffff;fill-opacity:0.54203933;fill-rule:nonzero;stroke:none;stroke-width:4;marker:none;visibility:visible;display:inline;overflow:visible;enable-background:accumulate" />
      <path
         inkscape:transform-center-y="20.5"
         sodipodi:nodetypes="cccc"
         inkscape:connector-curvature="0"
         id="path3899"
         d="m 42.350481,13.572441 1.299038,0.75 L 41.5,16.545517 z"
         style="color:#000000;fill:#ffffff;fill-opacity:0.54203933;fill-rule:nonzero;stroke:none;stroke-width:4;marker:none;visibility:visible;display:inline;overflow:visible;enable-background:accumulate" />
      <path
         inkscape:transform-center-y="20.5"
         sodipodi:nodetypes="cccc"
         inkscape:connector-curvature="0"
         id="path3903"
         d="m 50.677559,21.350481 0.75,1.299038 L 48.454483,23.5 z"
         style="color:#000000;fill:#ffffff;fill-opacity:0.54203933;fill-rule:nonzero;stroke:none;stroke-width:4;marker:none;visibility:visible;display:inline;overflow:visible;enable-background:accumulate" />
      <path
         inkscape:transform-center-y="20.5"
         sodipodi:nodetypes="cccc"
         inkscape:connector-curvature="0"
         id="path3909"
         d="m 51.427559,43.350481 -0.75,1.299038 L 48.454483,42.5 z"
         style="color:#000000;fill:#ffffff;fill-opacity:0.54203933;fill-rule:nonzero;stroke:none;stroke-width:4;marker:none;visibility:visible;display:inline;overflow:visible;enable-background:accumulate" />
      <path
         inkscape:transform-center-y="20.5"
         sodipodi:nodetypes="cccc"
         inkscape:connector-curvature="0"
         id="path3913"
         d="m 43.649519,51.677559 -1.299038,0.75 L 41.5,49.454483 z"
         style="color:#000000;fill:#ffffff;fill-opacity:0.54203933;fill-rule:nonzero;stroke:none;stroke-width:4;marker:none;visibility:visible;display:inline;overflow:visible;enable-background:accumulate" />
    </g>
    <g
       id="g4321"
       style="fill:#ffffff;fill-opacity:0.10644007">
      <path
         inkscape:transform-center-y="20.5"
         sodipodi:nodetypes="cccc"
         inkscape:connector-curvature="0"
         id="path3877"
         d="m 27.030425,54.444482 -1.448888,-0.388228 1.500901,-2.703663 z"
         style="color:#000000;fill:#ffffff;fill-opacity:0.10644007;fill-rule:nonzero;stroke:none;stroke-width:4;marker:none;visibility:visible;display:inline;overflow:visible;enable-background:accumulate" />
      <path
         inkscape:transform-center-y="20.5"
         sodipodi:nodetypes="cccc"
         inkscape:connector-curvature="0"
         id="path3881"
         d="m 16.973981,49.086679 -1.06066,-1.06066 2.65165,-1.59099 z"
         style="color:#000000;fill:#ffffff;fill-opacity:0.10644007;fill-rule:nonzero;stroke:none;stroke-width:4;marker:none;visibility:visible;display:inline;overflow:visible;enable-background:accumulate" />
      <path
         inkscape:transform-center-y="20.5"
         sodipodi:nodetypes="cccc"
         inkscape:connector-curvature="0"
         id="path3885"
         d="m 10.943746,39.418463 -0.388228,-1.448888 3.091891,-0.05201 z"
         style="color:#000000;fill:#ffffff;fill-opacity:0.10644007;fill-rule:nonzero;stroke:none;stroke-width:4;marker:none;visibility:visible;display:inline;overflow:visible;enable-background:accumulate" />
      <path
         inkscape:transform-center-y="20.5"
         sodipodi:nodetypes="cccc"
         inkscape:connector-curvature="0"
         id="path3887"
         d="m 10.555518,28.030425 0.388228,-1.448888 2.703663,1.500901 z"
         style="color:#000000;fill:#ffffff;fill-opacity:0.10644007;fill-rule:nonzero;stroke:none;stroke-width:4;marker:none;visibility:visible;display:inline;overflow:visible;enable-background:accumulate" />
      <path
         inkscape:transform-center-y="20.5"
         sodipodi:nodetypes="cccc"
         inkscape:connector-curvature="0"
         id="path3891"
         d="m 15.913321,17.973981 1.06066,-1.06066 1.59099,2.65165 z"
         style="color:#000000;fill:#ffffff;fill-opacity:0.10644007;fill-rule:nonzero;stroke:none;stroke-width:4;marker:none;visibility:visible;display:inline;overflow:visible;enable-background:accumulate" />
      <path
         inkscape:transform-center-y="20.5"
         sodipodi:nodetypes="cccc"
         inkscape:connector-curvature="0"
         id="path3895"
         d="m 25.581537,11.943746 1.448888,-0.388228 0.05201,3.091891 z"
         style="color:#000000;fill:#ffffff;fill-opacity:0.10644007;fill-rule:nonzero;stroke:none;stroke-width:4;marker:none;visibility:visible;display:inline;overflow:visible;enable-background:accumulate" />
      <path
         inkscape:transform-center-y="20.5"
         sodipodi:nodetypes="cccc"
         inkscape:connector-curvature="0"
         id="path3897"
         d="m 36.969575,11.555518 1.448888,0.388228 -1.500901,2.703663 z"
         style="color:#000000;fill:#ffffff;fill-opacity:0.10644007;fill-rule:nonzero;stroke:none;stroke-width:4;marker:none;visibility:visible;display:inline;overflow:visible;enable-background:accumulate" />
      <path
         inkscape:transform-center-y="20.5"
         sodipodi:nodetypes="cccc"
         inkscape:connector-curvature="0"
         id="path3901"
         d="m 47.026019,16.913321 1.06066,1.06066 -2.65165,1.59099 z"
         style="color:#000000;fill:#ffffff;fill-opacity:0.10644007;fill-rule:nonzero;stroke:none;stroke-width:4;marker:none;visibility:visible;display:inline;overflow:visible;enable-background:accumulate" />
      <path
         inkscape:transform-center-y="20.5"
         sodipodi:nodetypes="cccc"
         inkscape:connector-curvature="0"
         id="path3905"
         d="m 53.056254,26.581537 0.388228,1.448888 -3.091891,0.05201 z"
         style="color:#000000;fill:#ffffff;fill-opacity:0.10644007;fill-rule:nonzero;stroke:none;stroke-width:4;marker:none;visibility:visible;display:inline;overflow:visible;enable-background:accumulate" />
      <path
         inkscape:transform-center-y="20.5"
         sodipodi:nodetypes="cccc"
         inkscape:connector-curvature="0"
         id="path3907"
         d="m 53.444482,37.969575 -0.388228,1.448888 -2.703663,-1.500901 z"
         style="color:#000000;fill:#ffffff;fill-opacity:0.10644007;fill-rule:nonzero;stroke:none;stroke-width:4;marker:none;visibility:visible;display:inline;overflow:visible;enable-background:accumulate" />
      <path
         inkscape:transform-center-y="20.5"
         sodipodi:nodetypes="cccc"
         inkscape:connector-curvature="0"
         id="path3911"
         d="m 48.086679,48.026019 -1.06066,1.06066 -1.59099,-2.65165 z"
         style="color:#000000;fill:#ffffff;fill-opacity:0.10644007;fill-rule:nonzero;stroke:none;stroke-width:4;marker:none;visibility:visible;display:inline;overflow:visible;enable-background:accumulate" />
      <path
         style="color:#000000;fill:#ffffff;fill-opacity:0.10644007;fill-rule:nonzero;stroke:none;stroke-width:4;marker:none;visibility:visible;display:inline;overflow:visible;enable-background:accumulate"
         d="m 38.418463,54.056254 -1.448888,0.388228 -0.05201,-3.091891 z"
         id="path3865"
         inkscape:connector-curvature="0"
         sodipodi:nodetypes="cccc"
         inkscape:transform-center-y="19.898537"
         inkscape:transform-center-x="-5.668014" />
    </g>
    <path
       inkscape:transform-center-x="-6.062178"
       inkscape:transform-center-y="3.5000001"
       sodipodi:nodetypes="ccccc"
       inkscape:connector-curvature="0"
       id="rect3859"
       d="m 43.624355,40.866026 -12.124354,-7 0.999999,-1.732051 12.124355,7 z"
       style="color:#000000;fill:#f58036;fill-opacity:1;fill-rule:nonzero;stroke:none;stroke-width:4.84746599;marker:none;visibility:visible;display:inline;overflow:visible;enable-background:accumulate;opacity:1;stroke-linecap:butt;stroke-linejoin:miter;stroke-miterlimit:4;stroke-dasharray:none;stroke-dashoffset:0;stroke-opacity:1" />
    <path
       inkscape:transform-center-x="-4.5669875"
       style="color:#000000;fill:#ffffff;fill-opacity:0.92576025;fill-rule:nonzero;stroke:none;stroke-width:4;marker:none;visibility:visible;display:inline;overflow:visible;enable-background:accumulate;opacity:1;stroke-linecap:butt;stroke-linejoin:miter;stroke-miterlimit:4;stroke-dasharray:none;stroke-dashoffset:0;stroke-opacity:1"
       d="M 42,50.320508 31.133975,33.5 l 1.73205,-1 z"
       id="path3862"
       inkscape:connector-curvature="0"
       sodipodi:nodetypes="cccc"
       inkscape:transform-center-y="8.410254" />
    <path
       transform="translate(1.19e-6,1.0000012)"
       d="m 34,32 a 2,2 0 1 1 -4,0 2,2 0 1 1 4,0 z"
       sodipodi:ry="2"
       sodipodi:rx="2"
       sodipodi:cy="32"
       sodipodi:cx="32"
       id="path3851"
       style="color:#000000;fill:#ffffff;fill-opacity:0.92576025;fill-rule:nonzero;stroke:none;stroke-width:4;marker:none;visibility:visible;display:inline;overflow:visible;enable-background:accumulate;opacity:1;stroke-linecap:butt;stroke-linejoin:miter;stroke-miterlimit:4;stroke-dasharray:none;stroke-dashoffset:0;stroke-opacity:1"
       sodipodi:type="arc" />
  </g>
</svg>

<svg xmlns="http://www.w3.org/2000/svg" viewBox="0 0 64 64"><g color="#000"><path d="m0 2v32 28l2 2h30 30l2-2v-28-32h-32z" fill="#aeb4c3"/><path d="m2 0l-2 1v1h19.563 19.563 24.875v-1l-2-1h-22.875-19.563" fill="#e7ecf0"/></g><path d="m0 1v3l2-2" fill="#f2f5f7"/><path d="m64 4l-2-2 2-1" fill="#ccd1db"/><g color="#000"><path d="M57 35A24 24 0 1 1 9 35 24 24 0 1 1 57 35" transform="matrix(1.04167 0 0 1.04167-2.375-3.458)" fill-opacity=".784" fill-rule="evenodd" fill="#26436c"/><path d="m31 15h2v18h-2z" fill="#448cf2"/><g fill="#fff" fill-opacity=".926"><path d="m31 11h2l-1 3z"/><path d="m54 32v2l-3-1z"/><path d="m33 55h-2l1-3z"/><path d="m10 34v-2l3 1z"/></g><g fill="#fff"><g fill-opacity=".542"><path d="m21.65 52.43l-1.299-.75 2.15-2.223z"/><path d="m13.322 44.65l-.75-1.299 2.973-.85z"/><path d="m12.572 22.65l.75-1.299 2.223 2.15z"/><path d="m20.35 14.322l1.299-.75.85 2.973z"/><path d="m42.35 13.572l1.299.75-2.15 2.223z"/><path d="m50.678 21.35l.75 1.299-2.973.85z"/><path d="m51.43 43.35l-.75 1.299-2.223-2.15z"/><path d="m43.65 51.678l-1.299.75-.85-2.973z"/></g><g fill-opacity=".106"><path d="m27.03 54.44l-1.449-.388 1.501-2.704z"/><path d="m16.974 49.09l-1.061-1.061 2.652-1.591z"/><path d="m10.944 39.42l-.388-1.449 3.092-.052z"/><path d="m10.556 28.03l.388-1.449 2.704 1.501z"/><path d="m15.913 17.974l1.061-1.061 1.591 2.652z"/><path d="m25.582 11.944l1.449-.388.052 3.092z"/><path d="m36.97 11.556l1.449.388-1.501 2.704z"/><path d="m47.03 16.913l1.061 1.061-2.652 1.591z"/><path d="m53.06 26.582l.388 1.449-3.092.052z"/><path d="m53.44 37.97l-.388 1.449-2.704-1.501z"/><path d="m48.09 48.03l-1.061 1.061-1.591-2.652z"/><path d="m38.418 54.06l-1.449.388-.052-3.092z"/></g></g><path d="m43.624 40.866l-12.12-7 1-1.732 12.12 7z" fill-opacity="1" fill="#f58036"/><g fill="#fff" fill-opacity=".926"><path d="m42 50.32l-10.866-16.821 1.732-1z"/><path transform="translate(0 1)" d="m34 32a2 2 0 1 1 -4 0 2 2 0 1 1 4 0"/></g></g></svg>
